X: 65
T:Sbaen Wenddydd
M:6/8
L:1/8
Q:120
S:Mary Richards' (1787-1877) Collection
R:Jig
A:Wales
Z:brian_martin12345@yahoo.com
K:C
G|c2Bc2d|e3c2c|f2ed2c|d2cB2G|c2Bc2d|e3c2c|f2e dcB|c3-c2:||!
e|g2ge2g|f2fd2f|e2ec2e|d2dB2G|c2Bc2d|e3c2c|!
f2ed2c|d2cB2G|c2Bc2d|e3c2c|f2e dcB|c3-c2:||

